!! J.S. Bach "Andante" from Sonata No. 2, for solo violin, BWV 1003.
!! From 'Neue Ausgabe Saemtlicher Werke' Serie VI: Kammermusikwerke,
!! Band 1 ('Werke fuer Violine') Baerenreiter Kassel (Basel) 1958; p.26
!! This file has been error-checked using the double-entry method.
!! NOTE:  This 'monophonic' work has been recoded here as a four-part work.
!! NOTE:  A considerable degree of latitude has been exercised in the
!!        assignment of parts and voices.
**kern	**kern	**kern	**kern
*M3/4	*M3/4	*M3/4	*M3/4
=1	=1	=1	=1
2.r	8c	4e	2.r
.	8c	.	.
.	8c	8r	.
.	8c	8e	.
.	8c	16f	.
.	.	16e	.
.	8c	16d	.
.	.	16c	.
=2	=2	=2	=2
2.r	8B	16g	2.r
.	.	16d	.
.	8B	[8f	.
.	8B	8f]	.
.	8B	8a	.
.	8B	16g	.
.	.	16f	.
.	8B	16e	.
.	.	16d	.
=3	=3	=3	=3
2.r	8c	16e	4r
.	.	16g	.
.	8c	16a	.
.	.	16b	.
.	8A	8cc	16g
.	.	.	16g
.	8A	4.r	16a
.	.	.	16e
.	8d	.	16f#
.	.	.	16a
.	8d	.	16b
.	.	.	16cc
=4	=4	=4	=4
2.r	8G	8d	16b
.	.	.	16a
.	8G	8r	8g
.	2r	8g	8r
.	.	8g	16ee
.	.	.	16dd
.	.	8g	16ee
.	.	.	16dd
.	.	8g	16cc
.	.	.	16b
=5	=5	=5	=5
2.r	2.r	8g	4a
.	.	8g	.
.	.	8f	8r
.	.	8f	16dd
.	.	.	16ee
.	.	8f	16dd
.	.	.	16cc
.	.	8f	16b
.	.	.	16a
=6	=6	=6	=6
2.r	4r	8f	16b
.	.	.	16dd
.	.	8f	16ee
.	.	.	16ff
.	16dd	8e	8gg
.	16dd	.	.
.	16ee	8e	4.r
.	16b	.	.
.	16cc	8a	.
.	16ee	.	.
.	16aa	8a	.
.	16gg	.	.
=7	=7	=7	=7
2r	8ff	8d	16cc
.	.	.	16cc
.	4.r	8d	16dd
.	.	.	16a
.	.	8g	16b
.	.	.	16cc
.	.	8g	16dd
.	.	.	16ee
8G	8d	8b	16ff
.	.	.	16aa
8G	8d	8b	16gg
.	.	.	16ff
=8	=8	=8	=8
8c	8g	8cc	8ee
8c	8r	8r	8r
8c	8r	2r	16r
.	.	.	16dd
8c	8e	.	16cc
.	.	.	16b
8c	8e	.	16a
.	.	.	16g
8c	8r	.	32f#
.	.	.	32g
.	.	.	16e
=9	=9	=9	=9
8c	2r	2.r	16f#
.	.	.	16d
8r	.	.	16e
.	.	.	16f#
4r	.	.	{32g
.	.	.	32b
.	.	.	32a
.	.	.	32cc
.	.	.	32b
.	.	.	32dd
.	.	.	32cc
.	.	.	32ee}
4B	4g	.	4dd
=10	=10	=10	=10
2.r	4r	2.r	16c
.	.	.	{32ee
.	.	.	32dd
.	.	.	32cc
.	.	.	32dd
.	.	.	16ee}
.	2d	.	[8b
.	.	.	32b]
.	.	.	64cc
.	.	.	64b
.	.	.	32a
.	.	.	32b
.	.	.	8cc
.	.	.	8aT
=11	=11	=11	=11
2.r	8G	4r	4g
.	8G	.	.
.	8A	16r	2r
.	.	16g	.
.	8A	16f	.
.	.	16e	.
.	8B	16d	.
.	.	16a	.
.	8B	16g	.
.	.	16f	.
=12	=12	=12	=12
2.r	8c	4e	2.r
.	8c	.	.
.	8c	8r	.
.	8c	8e	.
.	8c	16f	.
.	.	16e	.
.	8c	16d	.
.	.	16c	.
=13	=13	=13	=13
2.r	8B	16g	2.r
.	.	16d	.
.	8B	[8f	.
.	8B	8f]	.
.	8B	8a	.
.	8B	16g	.
.	.	16f	.
.	8B	16e	.
.	.	16d	.
=14	=14	=14	=14
2.r	8c	16e	4r
.	.	16g	.
.	8c	16a	.
.	.	16b	.
.	8A	8cc	16g
.	.	.	16g
.	8A	4.r	16a
.	.	.	16e
.	8d	.	16f#
.	.	.	16a
.	8d	.	16b
.	.	.	16cc
=15	=15	=15	=15
2.r	8G	8d	16b
.	.	.	16a
.	8G	8r	8g
.	2r	8g	8r
.	.	8g	16ee
.	.	.	16dd
.	.	8g	16ee
.	.	.	16dd
.	.	8g	16cc
.	.	.	16b
=16	=16	=16	=16
2.r	2.r	8g	4a
.	.	8g	.
.	.	8f	8r
.	.	8f	16dd
.	.	.	16ee
.	.	8f	16dd
.	.	.	16cc
.	.	8f	16b
.	.	.	16a
=17	=17	=17	=17
2.r	4r	8f	16b
.	.	.	16dd
.	.	8f	16ee
.	.	.	16ff
.	16dd	8e	8gg
.	16dd	.	.
.	16ee	8e	4.r
.	16b	.	.
.	16cc	8a	.
.	16ee	.	.
.	16aa	8a	.
.	16gg	.	.
=18	=18	=18	=18
2r	8ff	8d	16cc
.	.	.	16cc
.	4.r	8d	16dd
.	.	.	16a
.	.	8g	16b
.	.	.	16cc
.	.	8g	16dd
.	.	.	16ee
8G	8d	8b	16ff
.	.	.	16aa
8G	8d	8b	16gg
.	.	.	16ff
=19	=19	=19	=19
8c	8g	8cc	8ee
8c	8r	8r	8r
8c	8r	2r	16r
.	.	.	16dd
8c	8e	.	16cc
.	.	.	16b
8c	8e	.	16a
.	.	.	16g
8c	8r	.	32f#
.	.	.	32g
.	.	.	16e
=20	=20	=20	=20
8c	2r	2.r	16f#
.	.	.	16d
8r	.	.	16e
.	.	.	16f#
4r	.	.	{32g
.	.	.	32b
.	.	.	32a
.	.	.	32cc
.	.	.	32b
.	.	.	32dd
.	.	.	32cc
.	.	.	32ee}
4B	4g	.	4dd
=21	=21	=21	=21
2.r	4r	2.r	16c
.	.	.	{32ee
.	.	.	32dd
.	.	.	32cc
.	.	.	32dd
.	.	.	16ee}
.	2d	.	[8b
.	.	.	32b]
.	.	.	64cc
.	.	.	64b
.	.	.	32a
.	.	.	32b
.	.	.	8cc
.	.	.	8aT
=22	=22	=22	=22
2.r	2.G	2.g	2.r
=23	=23	=23	=23
2.r	8g	2.r	4dd
.	8g	.	.
.	8g	.	8r
.	8g	.	8dd
.	8g	.	16ee
.	.	.	16dd
.	8g	.	16cc
.	.	.	16b
=24	=24	=24	=24
2.r	8g#	4.r	16ee
.	.	.	16b
.	8g#	.	[8dd
.	8g#	.	8dd]
.	8g#	8dd	8ff
.	8g	8b	16ee
.	.	.	16dd
.	8g	8r	16cc
.	.	.	16b
=25	=25	=25	=25
2.r	8a	2.r	16cc
.	.	.	16dd
.	8a	.	[8ee
.	8f	.	8ee]
.	8f	.	8ee
.	8f	.	16dd
.	.	.	16cc
.	8f	.	16b
.	.	.	16a
=26	=26	=26	=26
2.r	8e	16aa	8b
.	.	16ff#	.
.	8e	8gg#	8b
.	2r	8r	8dd
.	.	{16gg#	8dd
.	.	16bb}	.
.	.	{16bb	8dd
.	.	16gg#}	.
.	.	{16gg#	8dd
.	.	16ee}	.
=27	=27	=27	=27
2.r	2.r	[4aa	8cc
.	.	.	8cc
.	.	16aa]	8cc
.	.	16bb	.
.	.	16aa	8cc
.	.	16ggn	.
.	.	8cc	16ff#
.	.	.	16ee
.	.	8a	16dd#
.	.	.	16ee
=28	=28	=28	=28
2.r	8f#	8dd#	16aa
.	.	.	16bb
.	8f#	8dd#	[8ccc
.	2r	8dd#	8ccc]
.	.	8dd#	16ccc
.	.	.	16bb
.	.	8b	16aa
.	.	.	16gg
.	.	8b	16aa
.	.	.	16ff#
=29	=29	=29	=29
2.r	8e	8b	16gg
.	.	.	16ee
.	8f#	8r	16dd#
.	.	.	16ee
.	8g	8bb	8ee
.	8a	8aa	8r
.	8b	16aa	4r
.	.	16gg	.
.	8b	16aa	.
.	.	16ff#	.
=30	=30	=30	=30
2.r	2.r	{8ff#	8ee
.	.	8ee}	8ee
.	.	8r	8ddn
.	.	16ee	8dd
.	.	16ffn	.
.	.	16gg	8dd
.	.	16aa	.
.	.	[8bb-	8dd
=31	=31	=31	=31
2.r	2.r	8bb-]	8cc#
.	.	8aa	8cc#
.	.	8r	8a
.	.	8gg	8a
.	.	16gg	8a
.	.	16ff	.
.	.	16gg	8a
.	.	16e	.
=32	=32	=32	=32
2.r	4r	8ee	8dd
.	.	8ff	8dd
.	8d	4r	8r
.	8d	.	16dd
.	.	.	16ee
.	8d	8a	16ff
.	.	.	16gg
.	8d	8b	8aa
=33	=33	=33	=33
2.r	8e	2.r	8b
.	8e	.	8cc
.	8f#	.	8r
.	8f#	.	8cc
.	8f#	.	16ee
.	.	.	16dd
.	8f#	.	16ee
.	.	.	16cc
=34	=34	=34	=34
2r	8g	2.r	4b
.	8g	.	.
.	8g	.	16r
.	.	.	16b
.	8g	.	16cc
.	.	.	16b
8G	4r	.	16a
.	.	.	16g
8G	.	.	16fn
.	.	.	16e
=35	=35	=35	=35
16A-	2r	2r	16f
8.r	.	.	{16ee-
.	.	.	16dd
.	.	.	16cc
4r	.	.	16b
.	.	.	16cc}
.	.	.	16aa-
.	.	.	16gg
16An	16d	16cc	16ff#
8.r	8.r	8.r	{32cc
.	.	.	32b
.	.	.	16cc}
.	.	.	16ff#
=36	=36	=36	=36
8G	8e	8cc	16.gg
.	.	.	{32aan
8r	8r	8r	32gg
.	.	.	32ffn
.	.	.	64ee
.	.	.	64ff
.	.	.	32gg}
4G	4d	2r	[8cc
.	.	.	32cc]
.	.	.	32b
.	.	.	32a
.	.	.	32b
4r	4r	.	8.bT
.	.	.	32a
.	.	.	32b
=37	=37	=37	=37
8c	8e	2.r	4cc
8c	8e	.	.
8B	8e	.	4r
8B	8e	.	.
8A	8f#	.	4r
8A	8f#	.	.
=38	=38	=38	=38
8G	8g	2.r	16b
.	.	.	16cc
8G	8g	.	8dd
2r	8g	.	8r
.	8g	.	8dd
.	8g	.	16ee
.	.	.	16dd
.	8g	.	16cc
.	.	.	16b
=39	=39	=39	=39
2.r	8g#	4.r	16ee
.	.	.	16b
.	8g#	.	[8dd
.	8g#	.	8dd]
.	8g#	8dd	8ff
.	8g	8b	16ee
.	.	.	16dd
.	8g	8r	16cc
.	.	.	16b
=40	=40	=40	=40
2.r	8a	2.r	16cc
.	.	.	16dd
.	8a	.	[8ee
.	8f	.	8ee]
.	8f	.	8ee
.	8f	.	16dd
.	.	.	16cc
.	8f	.	16b
.	.	.	16a
=41	=41	=41	=41
2.r	8e	16aa	8b
.	.	16ff#	.
.	8e	8gg#	8b
.	2r	8r	8dd
.	.	{16gg#	8dd
.	.	16bb}	.
.	.	{16bb	8dd
.	.	16gg#}	.
.	.	{16gg#	8dd
.	.	16ee}	.
=42	=42	=42	=42
2.r	2.r	[4aa	8cc
.	.	.	8cc
.	.	16aa]	8cc
.	.	16bb	.
.	.	16aa	8cc
.	.	16ggn	.
.	.	8cc	16ff#
.	.	.	16ee
.	.	8a	16dd#
.	.	.	16ee
=43	=43	=43	=43
2.r	8f#	8dd#	16aa
.	.	.	16bb
.	8f#	8dd#	[8ccc
.	2r	8dd#	8ccc]
.	.	8dd#	16ccc
.	.	.	16bb
.	.	8b	16aa
.	.	.	16gg
.	.	8b	16aa
.	.	.	16ff#
=44	=44	=44	=44
2.r	8e	8b	16gg
.	.	.	16ee
.	8f#	8r	16dd#
.	.	.	16ee
.	8g	8bb	8ee
.	8a	8aa	8r
.	8b	16aa	4r
.	.	16gg	.
.	8b	16aa	.
.	.	16ff#	.
=45	=45	=45	=45
2.r	2.r	{8ff#	8ee
.	.	8ee}	8ee
.	.	8r	8ddn
.	.	16ee	8dd
.	.	16ffn	.
.	.	16gg	8dd
.	.	16aa	.
.	.	[8bb-	8dd
=46	=46	=46	=46
2.r	2.r	8bb-]	8cc#
.	.	8aa	8cc#
.	.	8r	8a
.	.	8gg	8a
.	.	16gg	8a
.	.	16ff	.
.	.	16gg	8a
.	.	16e	.
=47	=47	=47	=47
2.r	4r	8ee	8dd
.	.	8ff	8dd
.	8d	4r	8r
.	8d	.	16dd
.	.	.	16ee
.	8d	8a	16ff
.	.	.	16gg
.	8d	8b	8aa
=48	=48	=48	=48
2.r	8e	2.r	8b
.	8e	.	8cc
.	8f#	.	8r
.	8f#	.	8cc
.	8f#	.	16ee
.	.	.	16dd
.	8f#	.	16ee
.	.	.	16cc
=49	=49	=49	=49
2r	8g	2.r	4b
.	8g	.	.
.	8g	.	16r
.	.	.	16b
.	8g	.	16cc
.	.	.	16b
8G	4r	.	16a
.	.	.	16g
8G	.	.	16fn
.	.	.	16e
=50	=50	=50	=50
16A-	2r	2r	16f
8.r	.	.	{16ee-
.	.	.	16dd
.	.	.	16cc
4r	.	.	16b
.	.	.	16cc}
.	.	.	16aa-
.	.	.	16gg
16An	16d	16cc	16ff#
8.r	8.r	8.r	{32cc
.	.	.	32b
.	.	.	16cc}
.	.	.	16ff#
=51	=51	=51	=51
8G	8e	8cc	16.gg
.	.	.	{32aan
8r	8r	8r	32gg
.	.	.	32ffn
.	.	.	64ee
.	.	.	64ff
.	.	.	32gg}
4G	4d	2r	[8cc
.	.	.	32cc]
.	.	.	32b
.	.	.	32a
.	.	.	32b
4r	4r	.	8.bT
.	.	.	32a
.	.	.	32b
=52	=52	=52	=52
2.c	2.e	2.r	2.cc
==	==	==	==
*-	*-	*-	*-
